X:409
T:B409-  St. George for England
Q:1/4=120
L:1/4
M:C|
K:C
c/|c/c/c/c/ c3/2c/|c/B/A/G/A3/2A/|d/d/d/d/ d/d/d/e/|\
d/c/B/A/B3/2G/|e/c/c/c/ c3/2c/|c/B/A/G/A3/2A/|A/d/d/d/d3/2e/|\
d/c/B/A/B3/2g/|e/c/c/c/c3/2c/|c/B/A/G/AG/F/|c3/2G/A3/2E/|\
F/F/G/G/cz/ "Chorus"c/|c3/2d/ec|f2f3/2f/|eedc|\
d4|e2ee|f2e2|d3c|c4|]
